src/assets/icons/sending.svg

<?xml version="1.0" encoding="UTF-8"?>
<svg width="100px" height="100px" viewBox="0 0 100 100" version="1.1" xmlns="http://www.w3.org/2000/svg" xmlns:xlink="http://www.w3.org/1999/xlink">
    <title>蒙版</title>
    <defs>
        <linearGradient x1="50%" y1="0%" x2="50%" y2="100%" id="linearGradient-1">
            <stop stop-color="#F0C002" offset="0%"></stop>
            <stop stop-color="#F9E204" stop-opacity="0" offset="100%"></stop>
        </linearGradient>
        <circle id="path-2" cx="50" cy="50" r="50"></circle>
        <linearGradient x1="86.7346939%" y1="0%" x2="37.6504119%" y2="40.8874571%" id="linearGradient-4">
            <stop stop-color="#33618E" offset="0%"></stop>
            <stop stop-color="#3D3835" offset="100%"></stop>
        </linearGradient>
        <linearGradient x1="64.4935673%" y1="6.83083736%" x2="50%" y2="50%" id="linearGradient-5">
            <stop stop-color="#FFFFFF" stop-opacity="0.9" offset="0%"></stop>
            <stop stop-color="#FFFFFF" stop-opacity="0" offset="100%"></stop>
        </linearGradient>
        <path d="M2.73508894,19.0883037 L52.1026334,2.63245553 C55.2462933,1.5845689 58.6442132,3.28352882 59.6920998,6.42718872 C59.8960327,7.03898754 60,7.67966275 60,8.32455532 L60,45.6754447 C60,48.2580271 58.3474194,50.5508602 55.8973666,51.3675445 L5.26491106,68.2450296 C3.16913779,68.9436207 0.903857898,67.8109808 0.205266808,65.7152075 C0.0693115159,65.3073416 4.24459875e-15,64.8802248 0,64.4502965 L0,22.8830369 C-8.51867667e-16,21.1613152 1.10172038,19.6327599 2.73508894,19.0883037 Z" id="path-6"></path>
        <linearGradient x1="50%" y1="0%" x2="50%" y2="100%" id="linearGradient-8">
            <stop stop-color="#FFFFFF" offset="0%"></stop>
            <stop stop-color="#FFFFFF" stop-opacity="0" offset="100%"></stop>
        </linearGradient>
        <circle id="path-9" cx="20" cy="44" r="10"></circle>
        <filter x="-1.2%" y="-1.2%" width="105.0%" height="105.0%" filterUnits="objectBoundingBox" id="filter-10">
            <feOffset dx="0.5" dy="0.5" in="SourceAlpha" result="shadowOffsetOuter1"></feOffset>
            <feComposite in="shadowOffsetOuter1" in2="SourceAlpha" operator="out" result="shadowOffsetOuter1"></feComposite>
            <feColorMatrix values="0 0 0 0 0.941176471   0 0 0 0 0.611764706   0 0 0 0 0  0 0 0 0.5 0" type="matrix" in="shadowOffsetOuter1"></feColorMatrix>
        </filter>
        <filter x="-11.2%" y="-11.2%" width="125.0%" height="125.0%" filterUnits="objectBoundingBox" id="filter-11">
            <feMorphology radius="4" operator="erode" in="SourceAlpha" result="shadowSpreadInner1"></feMorphology>
            <feOffset dx="0.5" dy="0.5" in="shadowSpreadInner1" result="shadowOffsetInner1"></feOffset>
            <feComposite in="shadowOffsetInner1" in2="SourceAlpha" operator="arithmetic" k2="-1" k3="1" result="shadowInnerInner1"></feComposite>
            <feColorMatrix values="0 0 0 0 0.980392157   0 0 0 0 0.654901961   0 0 0 0 0  0 0 0 0.5 0" type="matrix" in="shadowInnerInner1"></feColorMatrix>
        </filter>
        <circle id="path-12" cx="72" cy="76" r="8"></circle>
        <filter x="-1.6%" y="-1.6%" width="106.2%" height="106.2%" filterUnits="objectBoundingBox" id="filter-13">
            <feOffset dx="0.5" dy="0.5" in="SourceAlpha" result="shadowOffsetOuter1"></feOffset>
            <feComposite in="shadowOffsetOuter1" in2="SourceAlpha" operator="out" result="shadowOffsetOuter1"></feComposite>
            <feColorMatrix values="0 0 0 0 0.941176471   0 0 0 0 0.611764706   0 0 0 0 0  0 0 0 0.5 0" type="matrix" in="shadowOffsetOuter1"></feColorMatrix>
        </filter>
        <filter x="-10.9%" y="-10.9%" width="125.0%" height="125.0%" filterUnits="objectBoundingBox" id="filter-14">
            <feMorphology radius="3" operator="erode" in="SourceAlpha" result="shadowSpreadInner1"></feMorphology>
            <feOffset dx="0.5" dy="0.5" in="shadowSpreadInner1" result="shadowOffsetInner1"></feOffset>
            <feComposite in="shadowOffsetInner1" in2="SourceAlpha" operator="arithmetic" k2="-1" k3="1" result="shadowInnerInner1"></feComposite>
            <feColorMatrix values="0 0 0 0 0.980392157   0 0 0 0 0.654901961   0 0 0 0 0  0 0 0 0.5 0" type="matrix" in="shadowInnerInner1"></feColorMatrix>
        </filter>
        <linearGradient x1="50%" y1="50%" x2="0%" y2="20.244898%" id="linearGradient-15">
            <stop stop-color="#FFB729" offset="0%"></stop>
            <stop stop-color="#5BAFF2" offset="100%"></stop>
        </linearGradient>
        <linearGradient x1="69.7273555%" y1="24.3099432%" x2="50%" y2="50%" id="linearGradient-16">
            <stop stop-color="#FFFFFF" stop-opacity="0.9" offset="0%"></stop>
            <stop stop-color="#FFFFFF" stop-opacity="0" offset="100%"></stop>
        </linearGradient>
    </defs>
    <g id="扩展程序" stroke="none" stroke-width="1" fill="none" fill-rule="evenodd">
        <g id="发送中" transform="translate(-138.000000, -226.000000)">
            <g id="编组-2" transform="translate(60.000000, 166.000000)">
                <g id="编组-7" transform="translate(78.000000, 60.000000)">
                    <mask id="mask-3" fill="white">
                        <use xlink:href="#path-2"></use>
                    </mask>
                    <use id="蒙版" fill="url(#linearGradient-1)" opacity="0.149999991" xlink:href="#path-2"></use>
                    <g mask="url(#mask-3)">
                        <g transform="translate(10.000000, 6.000000)">
                            <g id="矩形备份-3" stroke="none" stroke-width="1" fill="none" fill-rule="evenodd" transform="translate(0.000000, 24.000000)">
                                <mask id="mask-7" fill="white">
                                    <use xlink:href="#path-6"></use>
                                </mask>
                                <path stroke="url(#linearGradient-5)" stroke-width="0.5" d="M52.1816903,2.86962636 C53.6880274,2.36751401 55.2552809,2.52350032 56.5714782,3.18159897 C57.8876755,3.83969763 58.9528166,4.99990863 59.454929,6.50624567 C59.6503647,7.09255286 59.75,7.70653327 59.75,8.32455532 L59.75,8.32455532 L59.75,45.6754447 C59.75,46.9129321 59.3540692,48.0810004 58.6646426,49.0375288 C57.9752159,49.9940572 56.9922933,50.7390458 55.8183097,51.1303736 L55.8183097,51.1303736 L5.18585412,68.0078588 C4.2034604,68.3353234 3.18133857,68.2335932 2.32294902,67.8043984 C1.46455947,67.3752036 0.769902206,66.6185443 0.442437632,65.6361506 C0.314979546,65.2537763 0.25,64.8533543 0.25,64.4502965 L0.25,64.4502965 L0.25,22.8830369 C0.25,22.0759799 0.508215714,21.3141962 0.957841806,20.6903733 C1.4074679,20.0665504 2.04850437,19.5806883 2.81414588,19.3254745 L2.81414588,19.3254745 Z"></path>
                                <polygon fill="url(#linearGradient-8)" mask="url(#mask-7)" points="-6 32 54 12 54 22 -6 42"></polygon>
                            </g>
                            <g id="椭圆形备份-3" stroke="none" fill="none">
                                <use fill="black" fill-opacity="1" filter="url(#filter-10)" xlink:href="#path-9"></use>
                                <use fill="#FFEB00" fill-rule="evenodd" xlink:href="#path-9"></use>
                                <use fill="black" fill-opacity="1" filter="url(#filter-11)" xlink:href="#path-9"></use>
                                <circle stroke="#FFDB00" stroke-width="4" stroke-linejoin="square" cx="20" cy="44" r="8"></circle>
                            </g>
                            <g id="椭圆形备份-5" stroke="none" fill="none">
                                <use fill="black" fill-opacity="1" filter="url(#filter-13)" xlink:href="#path-12"></use>
                                <use fill="#FFEB00" fill-rule="evenodd" xlink:href="#path-12"></use>
                                <use fill="black" fill-opacity="1" filter="url(#filter-14)" xlink:href="#path-12"></use>
                                <circle stroke="#FFDB00" stroke-width="3" stroke-linejoin="square" cx="72" cy="76" r="6.5"></circle>
                            </g>
                            <path d="M0.25,49.0017758 C0.448316403,49.3725134 0.700003635,49.7104113 0.99479618,50.0052038 C1.76389491,50.7743025 2.82639491,51.25 4,51.25 L4,51.25 L64,51.25 C65.5878187,51.25 67.0253187,51.8935907 68.065864,52.934136 C69.1064093,53.9746813 69.75,55.4121813 69.75,57 L69.75,57 L69.75,95 C69.75,96.5878187 69.1064093,98.0253187 68.065864,99.065864 C67.0253187,100.106409 65.5878187,100.75 64,100.75 L64,100.75 L6,100.75 C4.41218134,100.75 2.97468134,100.106409 1.93413601,99.065864 C0.893590672,98.0253187 0.25,96.5878187 0.25,95 L0.25,95 Z" id="矩形备份" stroke="url(#linearGradient-16)" stroke-width="0.5" fill-opacity="0.7" fill="url(#linearGradient-15)" fill-rule="evenodd"></path>
                        </g>
                    </g>
                </g>
            </g>
        </g>
    </g>
</svg>

<svg width="100" height="100" xmlns="http://www.w3.org/2000/svg" xmlns:xlink="http://www.w3.org/1999/xlink"><defs><linearGradient x1="50%" y1="0" x2="50%" y2="100%" id="b"><stop stop-color="#f0c002" offset="0"/><stop stop-color="#f9e204" stop-opacity="0" offset="100%"/></linearGradient><linearGradient x1="69.727%" y1="24.31%" x2="50%" y2="50%" id="n"><stop stop-color="#fff" stop-opacity=".9" offset="0"/><stop stop-color="#fff" stop-opacity="0" offset="100%"/></linearGradient><linearGradient x1="64.494%" y1="6.831%" x2="50%" y2="50%" id="e"><stop stop-color="#fff" stop-opacity=".9" offset="0"/><stop stop-color="#fff" stop-opacity="0" offset="100%"/></linearGradient><linearGradient x1="50%" y1="50%" x2="0" y2="20.245%" id="o"><stop stop-color="#ffb729" offset="0"/><stop stop-color="#5baff2" offset="100%"/></linearGradient><linearGradient x1="50%" y1="0" x2="50%" y2="100%" id="f"><stop stop-color="#fff" offset="0"/><stop stop-color="#fff" stop-opacity="0" offset="100%"/></linearGradient><filter x="-11.2%" y="-11.2%" width="125%" height="125%" filterUnits="objectBoundingBox" id="j"><feMorphology radius="4" in="SourceAlpha" result="shadowSpreadInner1"/><feOffset dx=".5" dy=".5" in="shadowSpreadInner1" result="shadowOffsetInner1"/><feComposite in="shadowOffsetInner1" in2="SourceAlpha" operator="arithmetic" k2="-1" k3="1" result="shadowInnerInner1"/><feColorMatrix values="0 0 0 0 0.980392157 0 0 0 0 0.654901961 0 0 0 0 0 0 0 0 0.5 0" in="shadowInnerInner1"/></filter><filter x="-1.6%" y="-1.6%" width="106.2%" height="106.2%" filterUnits="objectBoundingBox" id="k"><feOffset dx=".5" dy=".5" in="SourceAlpha" result="shadowOffsetOuter1"/><feComposite in="shadowOffsetOuter1" in2="SourceAlpha" operator="out" result="shadowOffsetOuter1"/><feColorMatrix values="0 0 0 0 0.941176471 0 0 0 0 0.611764706 0 0 0 0 0 0 0 0 0.5 0" in="shadowOffsetOuter1"/></filter><filter x="-10.9%" y="-10.9%" width="125%" height="125%" filterUnits="objectBoundingBox" id="m"><feMorphology radius="3" in="SourceAlpha" result="shadowSpreadInner1"/><feOffset dx=".5" dy=".5" in="shadowSpreadInner1" result="shadowOffsetInner1"/><feComposite in="shadowOffsetInner1" in2="SourceAlpha" operator="arithmetic" k2="-1" k3="1" result="shadowInnerInner1"/><feColorMatrix values="0 0 0 0 0.980392157 0 0 0 0 0.654901961 0 0 0 0 0 0 0 0 0.5 0" in="shadowInnerInner1"/></filter><filter x="-1.2%" y="-1.2%" width="105%" height="105%" filterUnits="objectBoundingBox" id="h"><feOffset dx=".5" dy=".5" in="SourceAlpha" result="shadowOffsetOuter1"/><feComposite in="shadowOffsetOuter1" in2="SourceAlpha" operator="out" result="shadowOffsetOuter1"/><feColorMatrix values="0 0 0 0 0.941176471 0 0 0 0 0.611764706 0 0 0 0 0 0 0 0 0.5 0" in="shadowOffsetOuter1"/></filter><circle id="i" cx="20" cy="44" r="10"/><circle id="a" cx="50" cy="50" r="50"/><circle id="l" cx="72" cy="76" r="8"/><path d="M2.735 19.088 52.103 2.632A6 6 0 0 1 60 8.325v37.35a6 6 0 0 1-4.103 5.693L5.265 68.245A4 4 0 0 1 0 64.45V22.883a4 4 0 0 1 2.735-3.795z" id="d"/></defs><g fill="none" fill-rule="evenodd"><mask id="c" fill="#fff"><use xlink:href="#a"/></mask><use fill="url(#b)" opacity=".15" xlink:href="#a"/><g mask="url(#c)"><g transform="translate(10 30)"><mask id="g" fill="#fff"><use xlink:href="#d"/></mask><path stroke="url(#e)" stroke-width=".5" d="M52.182 2.87a5.732 5.732 0 0 1 4.39.312 5.75 5.75 0 0 1 3.179 5.143v37.35a5.743 5.743 0 0 1-1.086 3.363 5.743 5.743 0 0 1-2.847 2.092L5.186 68.008a3.738 3.738 0 0 1-2.863-.204A3.738 3.738 0 0 1 .25 64.45V22.883a3.745 3.745 0 0 1 2.564-3.558z"/><path fill="url(#f)" mask="url(#g)" d="m-6 32 60-20v10L-6 42z"/></g><g transform="translate(10 6)"><use fill="#000" filter="url(#h)" xlink:href="#i"/><use fill="#ffeb00" xlink:href="#i"/><use fill="#000" filter="url(#j)" xlink:href="#i"/><circle stroke="#ffdb00" stroke-width="4" stroke-linejoin="square" cx="20" cy="44" r="8"/></g><g transform="translate(10 6)"><use fill="#000" filter="url(#k)" xlink:href="#l"/><use fill="#ffeb00" xlink:href="#l"/><use fill="#000" filter="url(#m)" xlink:href="#l"/><circle stroke="#ffdb00" stroke-width="3" stroke-linejoin="square" cx="72" cy="76" r="6.5"/></g><path d="M.25 49.002c.198.37.45.708.745 1.003A4.237 4.237 0 0 0 4 51.25h60c1.588 0 3.025.644 4.066 1.684A5.732 5.732 0 0 1 69.75 57v38a5.732 5.732 0 0 1-1.684 4.066A5.732 5.732 0 0 1 64 100.75H6a5.732 5.732 0 0 1-4.066-1.684A5.732 5.732 0 0 1 .25 95z" stroke="url(#n)" stroke-width=".5" fill-opacity=".7" fill="url(#o)" transform="translate(10 6)"/></g></g></svg>
